svg/business/calendar_month_line.svg

<?xml version="1.0" encoding="UTF-8"?>
<svg width="24px" height="24px" viewBox="0 0 24 24" version="1.1" xmlns="http://www.w3.org/2000/svg" xmlns:xlink="http://www.w3.org/1999/xlink">
    <title>calendar_month_line</title>
    <g id="Icon" stroke="none" stroke-width="1" fill="none" fill-rule="evenodd">
        <g id="Business" transform="translate(-192.000000, -480.000000)" fill-rule="nonzero">
            <g id="calendar_month_line" transform="translate(192.000000, 480.000000)">
                <path d="M24,0 L24,24 L0,24 L0,0 L24,0 Z M12.5935,23.2578 L12.5819,23.2595 L12.5109,23.295 L12.4919,23.2987 L12.4767,23.295 L12.4057,23.2595 C12.3958,23.2564 12.387,23.259 12.3821,23.2649 L12.378,23.2758 L12.3609,23.7031 L12.3659,23.7235 L12.3769,23.7357 L12.4805,23.8097 L12.4953,23.8136 L12.5071,23.8097 L12.6107,23.7357 L12.6233,23.7197 L12.6267,23.7031 L12.6096,23.2758 C12.6076,23.2657 12.601,23.2593 12.5935,23.2578 Z M12.8584,23.1453 L12.8445,23.1473 L12.6598,23.2397 L12.6499,23.2499 L12.6472,23.2611 L12.6651,23.6906 L12.6699,23.7034 L12.6784,23.7105 L12.8793,23.8032 C12.8914,23.8069 12.9022,23.803 12.9078,23.7952 L12.9118,23.7812 L12.8777,23.1665 C12.8753,23.1546 12.8674,23.147 12.8584,23.1453 Z M12.143,23.1473 C12.1332,23.1424 12.1222,23.1453 12.1156,23.1526 L12.1099,23.1665 L12.0758,23.7812 C12.0751,23.7927 12.0828,23.8019 12.0926,23.8046 L12.1083,23.8032 L12.3092,23.7105 L12.3186,23.7024 L12.3225,23.6906 L12.3404,23.2611 L12.3372,23.2485 L12.3278,23.2397 L12.143,23.1473 Z" id="MingCute"></path>
                <path d="M19,3 C20.1046,3 21,3.89543 21,5 L21,19 C21,20.1046 20.1046,21 19,21 L5,21 C3.89543,21 3,20.1046 3,19 L3,5 C3,3.89543 3.89543,3 5,3 L19,3 Z M19,9 L5,9 L5,19 L19,19 L19,9 Z M8.5,15 C9.05228,15 9.5,15.4477 9.5,16 C9.5,16.5523 9.05228,17 8.5,17 L7.5,17 C6.94772,17 6.5,16.5523 6.5,16 C6.5,15.4477 6.94772,15 7.5,15 L8.5,15 Z M12.5,15 C13.0523,15 13.5,15.4477 13.5,16 C13.5,16.51285 13.113973,16.9355092 12.6166239,16.9932725 L12.5,17 L11.5,17 C10.9477,17 10.5,16.5523 10.5,16 C10.5,15.48715 10.886027,15.0644908 11.3833761,15.0067275 L11.5,15 L12.5,15 Z M8.5,11 C9.05228,11 9.5,11.4477 9.5,12 C9.5,12.51285 9.11395571,12.9355092 8.61662025,12.9932725 L8.5,13 L7.5,13 C6.94772,13 6.5,12.5523 6.5,12 C6.5,11.48715 6.88604429,11.0644908 7.38337975,11.0067275 L7.5,11 L8.5,11 Z M12.5,11 C13.0523,11 13.5,11.4477 13.5,12 C13.5,12.5523 13.0523,13 12.5,13 L11.5,13 C10.9477,13 10.5,12.5523 10.5,12 C10.5,11.4477 10.9477,11 11.5,11 L12.5,11 Z M16.5,11 C17.0523,11 17.5,11.4477 17.5,12 C17.5,12.51285 17.113973,12.9355092 16.6166239,12.9932725 L16.5,13 L15.5,13 C14.9477,13 14.5,12.5523 14.5,12 C14.5,11.48715 14.886027,11.0644908 15.3833761,11.0067275 L15.5,11 L16.5,11 Z M19,5 L5,5 L5,7 L19,7 L19,5 Z" id="形状" fill="#09244B"></path>
            </g>
        </g>
    </g>
</svg>

<svg xmlns="http://www.w3.org/2000/svg" width="24" height="24"><g fill="none" fill-rule="nonzero"><path d="M24 0v24H0V0zM12.594 23.258l-.012.002-.071.035-.02.004-.014-.004-.071-.036c-.01-.003-.019 0-.024.006l-.004.01-.017.428.005.02.01.013.104.074.015.004.012-.004.104-.074.012-.016.004-.017-.017-.427c-.002-.01-.009-.017-.016-.018m.264-.113-.014.002-.184.093-.01.01-.003.011.018.43.005.012.008.008.201.092c.012.004.023 0 .029-.008l.004-.014-.034-.614c-.003-.012-.01-.02-.02-.022m-.715.002a.023.023 0 0 0-.027.006l-.006.014-.034.614c0 .012.007.02.017.024l.015-.002.201-.093.01-.008.003-.011.018-.43-.003-.012-.01-.01z"/><path fill="#09244B" d="M19 3a2 2 0 0 1 2 2v14a2 2 0 0 1-2 2H5a2 2 0 0 1-2-2V5a2 2 0 0 1 2-2zm0 6H5v10h14zM8.5 15a1 1 0 1 1 0 2h-1a1 1 0 1 1 0-2zm4 0a1 1 0 0 1 .117 1.993L12.5 17h-1a1 1 0 0 1-.117-1.993L11.5 15zm-4-4a1 1 0 0 1 .117 1.993L8.5 13h-1a1 1 0 0 1-.117-1.993L7.5 11zm4 0a1 1 0 1 1 0 2h-1a1 1 0 1 1 0-2zm4 0a1 1 0 0 1 .117 1.993L16.5 13h-1a1 1 0 0 1-.117-1.993L15.5 11zM19 5H5v2h14z"/></g></svg>
